src/section/s1/t2.svg

<svg width="615" height="119" viewBox="0 0 615 119" fill="none" xmlns="http://www.w3.org/2000/svg">
<path d="M49.07 0.5H69.39V8.43H119.94V23.79H0V8.43H49.07V0.5ZM31.72 79.3H88.22V103.59C93.83 103.26 96.47 100.62 96.15 95.66V74.84H24.29V117.96H4.96V59.97H115.48V102.1C115.48 112.01 110.03 117.13 99.12 117.46H95.65C86.73 118.12 80.94 118.45 78.3 118.45C77.97 117.13 77.63 115.31 77.31 113C76.64 110.35 76.15 108.37 75.82 107.05H31.72V79.3ZM104.08 56.01H15.86V27.76H104.08V56.01ZM35.68 39.65V44.61H84.75V39.65H35.68ZM50.55 90.7V96.15H69.88V90.7H50.55Z" fill="white"/>
<path d="M127.18 30.23H172.28C172.94 15.69 173.27 5.94 173.27 0.989998H195.57C194.9 12.88 194.58 22.63 194.58 30.23H240.18V50.06H194.58C199.86 75.17 216.22 91.37 243.65 98.63C242.33 100.29 240.34 102.59 237.7 105.57C233.4 110.85 230.43 114.82 228.78 117.46C206.31 108.86 191.27 94.66 183.68 74.84C178.06 92.02 162.53 106.72 137.09 118.95C132.79 112.01 128.17 106.06 123.21 101.11C152.28 89.88 168.14 72.86 170.79 50.06H127.17V30.23H127.18Z" fill="white"/>
<path d="M274.18 15.36H339.6V24.78H290.04L329.19 60.96L289.54 95.16H341.08V104.58H273.67V94.67L311.83 60.47L274.16 26.27V15.37L274.18 15.36Z" fill="#CEAA6D"/>
<path d="M371.12 20.82H426.63V36.18H371.12V20.82ZM374.59 40.15H423.16V53.53H374.59V40.15ZM374.59 57.5H423.16V71.38H374.59V57.5ZM375.09 118.46V75.34H422.67V118.46H405.82V113.5H392.93V118.46H375.09ZM377.07 2.48H421.68V15.86H377.07V2.48ZM392.93 90.21V99.63H405.82V90.21H392.93ZM427.62 39.16H448.93V0.989998H468.76V39.15H491.56V57.98H468.76V118.45H448.93V57.98H427.62V39.15V39.16Z" fill="white"/>
<path d="M502.27 33.7H543.41V30.73H494.84V19.33H543.41V16.36H502.77V5.95H543.41V0H564.23V5.95H606.36V19.33H614.79V30.73H606.36V43.12H564.23V46.09H606.36V54.52H564.23V57.49H613.79V67.9H495.34V57.49H543.42V54.52H501.29V46.09H543.42V43.12H502.28V33.7H502.27ZM494.84 104.57H614.78V115.97H494.84V104.57ZM502.77 70.87H606.85V101.6H502.77V70.87ZM522.1 79.79V83.26H545.39V79.79H522.1ZM522.1 89.7V93.17H545.39V89.7H522.1ZM587.52 79.79H563.73V83.26H587.52V79.79ZM563.73 93.17H587.52V89.7H563.73V93.17ZM588.02 16.35H564.23V19.32H588.02V16.35ZM564.23 33.7H588.02V30.73H564.23V33.7Z" fill="white"/>
</svg>

<svg width="615" height="119" viewBox="0 0 615 119" fill="#FFF" xmlns="http://www.w3.org/2000/svg">
<path fill="#CEAA6D" d="M274.2,15.4h65.4v9.4H290L329.2,61l-39.6,34.2h51.5v9.4h-67.4v-9.9l38.2-34.2l-37.7-34.2L274.2,15.4L274.2,15.4z"/>
<path d="M49.1,0.5h20.3v7.9h50.6v15.4H0V8.4h49.1V0.5z M75.8,107.1H31.7V79.3h56.5v24.3c5.6-0.3,8.2-3,7.9-7.9V74.8H24.3V118H5V60h110.5v40.4c0,16.5-7.4,18.1-37.2,18.1L75.8,107.1z M104.1,56H15.9V27.8h88.2V56z M35.7,39.7v5h49.1v-5H35.7zM50.5,90.7v5.5h19.3v-5.5H50.5z M173.3,1h22.3l-1.5,45.9c4.4,27.1,22.1,44.5,49.6,51.7l-14.9,18.8c-22.5-8.6-37.5-22.8-45.1-42.6c-5.6,17.2-21.1,31.9-46.6,44.1l-13.9-17.8c38.9-16.1,48.6-34,49.2-70.9L173.3,1z M127.2,50.1V30.2h0h113v19.8H127.2z M371.1,20.8h55.5v15.4h-55.5V20.8z M374.6,40.2h48.6v13.4h-48.6V40.2z M374.6,57.5h48.6v13.9h-48.6V57.5z M375.1,118.5V75.3h47.6v43.1h-16.9v-5h-12.9v5H375.1z M377.1,2.5h44.6v13.4h-44.6V2.5z M392.9,90.2v9.4h12.9v-9.4H392.9z M427.6,58V39.2v0l63.9,0V58H427.6z M468.8,118.4h-19.8V1h19.8V118.4z M501.3,54.5v-8.4h105.1v8.4H501.3z M564.2,57.5h49.6v10.4H495.3V57.5h48.1l0-57.5h20.8V57.5z M494.8,104.6h119.9V116H494.8V104.6z M502.8,70.9h104.1v30.7H502.8V70.9z M545.4,79.8h-23.3v3.5h65.4v-3.5h-23.8v13.4h23.8v-3.5h-65.4v3.5h23.3V79.8z M588,16.4l-85.3,0V5.9h103.6v37.2H502.3v-9.4h0H588V16.4z M494.8,30.7V19.3h119.9v11.4H494.8z"/>
</svg>
